local/share/icons/dracula-icons-main/scalable/apps/datagrip.svg

<?xml version="1.0" encoding="UTF-8"?>
<svg xmlns="http://www.w3.org/2000/svg" xmlns:xlink="http://www.w3.org/1999/xlink" width="64" height="64" viewBox="0 0 64 64">
<path fill-rule="nonzero" fill="rgb(23.921569%, 78.431373%, 60.392157%)" fill-opacity="1" d="M 15.609375 8.464844 C 15.609375 12.410156 12.410156 15.609375 8.464844 15.609375 C 4.519531 15.609375 1.324219 12.410156 1.324219 8.464844 C 1.324219 4.519531 4.519531 1.324219 8.464844 1.324219 C 12.410156 1.324219 15.609375 4.519531 15.609375 8.464844 Z M 15.609375 8.464844 "/>
<path fill-rule="nonzero" fill="rgb(18.823529%, 18.823529%, 18.823529%)" fill-opacity="1" d="M 5.820312 4.496094 L 11.113281 4.496094 C 11.84375 4.496094 12.433594 5.089844 12.433594 5.820312 L 12.433594 11.113281 C 12.433594 11.84375 11.84375 12.433594 11.113281 12.433594 L 5.820312 12.433594 C 5.089844 12.433594 4.496094 11.84375 4.496094 11.113281 L 4.496094 5.820312 C 4.496094 5.089844 5.089844 4.496094 5.820312 4.496094 Z M 5.820312 4.496094 "/>
<path fill-rule="nonzero" fill="rgb(97.647059%, 97.647059%, 97.647059%)" fill-opacity="1" d="M 5.359375 5.359375 L 6.703125 5.359375 C 7.507812 5.359375 8.15625 5.988281 8.15625 7.0625 L 8.15625 7.078125 C 8.15625 8.160156 7.375 8.765625 6.773438 8.769531 L 6.292969 8.777344 L 5.359375 8.777344 Z M 6.601562 8.15625 C 6.976562 8.15625 7.535156 7.851562 7.535156 7.078125 L 7.535156 7.0625 C 7.535156 6.296875 6.976562 5.980469 6.601562 5.980469 L 5.980469 5.980469 L 5.980469 8.15625 Z M 6.601562 8.15625 "/>
<path fill-rule="nonzero" fill="rgb(97.647059%, 97.647059%, 97.647059%)" fill-opacity="1" d="M 10.175781 5.359375 C 9.683594 5.359375 9.242188 5.523438 8.9375 5.828125 C 8.628906 6.136719 8.464844 6.574219 8.464844 7.070312 C 8.464844 7.5625 8.628906 8 8.9375 8.308594 C 9.242188 8.613281 9.683594 8.777344 10.175781 8.777344 C 10.625 8.777344 10.964844 8.636719 11.183594 8.488281 C 11.402344 8.339844 11.519531 8.164062 11.519531 8.164062 L 11.574219 8.089844 L 11.574219 6.914062 L 10.019531 6.914062 L 10.019531 7.535156 L 10.953125 7.535156 L 10.953125 7.871094 C 10.933594 7.894531 10.925781 7.914062 10.835938 7.972656 C 10.707031 8.0625 10.5 8.15625 10.175781 8.15625 C 9.8125 8.15625 9.554688 8.046875 9.375 7.867188 C 9.195312 7.691406 9.085938 7.429688 9.085938 7.070312 C 9.085938 6.707031 9.195312 6.449219 9.375 6.269531 C 9.554688 6.089844 9.8125 5.980469 10.175781 5.980469 C 10.535156 5.980469 10.796875 6.089844 10.972656 6.269531 L 11.414062 5.828125 C 11.105469 5.523438 10.667969 5.359375 10.175781 5.359375 Z M 10.175781 5.359375 "/>
<path fill-rule="nonzero" fill="rgb(97.647059%, 97.647059%, 97.647059%)" fill-opacity="1" d="M 5.050781 10.949219 L 8.15625 10.949219 L 8.15625 11.570312 L 5.050781 11.570312 Z M 5.050781 10.949219 "/>
</svg>

<svg width="64" height="64" version="1.1" viewBox="0 0 16.933 16.933" xmlns="http://www.w3.org/2000/svg">
 <path d="m15.61 8.4662a7.1435 7.1435 0 0 1-7.1435 7.1435 7.1435 7.1435 0 0 1-7.1435-7.1435 7.1435 7.1435 0 0 1 7.1435-7.1435 7.1435 7.1435 0 0 1 7.1435 7.1435z" fill="#3dc89a" stroke-width=".26457"/>
 <rect x="4.4978" y="4.4978" width="7.9373" height="7.9373" rx="1.3229" ry="1.3229" fill="#303030" style="paint-order:markers stroke fill"/>
 <path d="m5.3605 5.3604h1.3434c0.80349 0 1.4516 0.62645 1.4516 1.7005v0.015529c0 1.0845-0.7792 1.6876-1.3806 1.6948l-0.48297 0.00563h-0.93176zm1.2423 2.7953c0.37385 0 0.93176-0.30535 0.93176-1.0793v-0.01553c0-0.76342-0.55781-1.0793-0.93176-1.0793h-0.62118v2.1741z" fill="#f9f9f9" stroke-width=".26457"/>
 <path d="m10.175 5.3604c-0.49293 0-0.93164 0.16246-1.2387 0.46951-0.30717 0.30686-0.46961 0.74572-0.46961 1.2386 0 0.49293 0.16246 0.93164 0.46951 1.2387 0.30686 0.30717 0.74572 0.46961 1.2386 0.46961 0.45107 0 0.7893-0.14115 1.0082-0.28876 0.21892-0.14759 0.33788-0.32211 0.33788-0.32211l0.05156-0.077653v-1.175h-1.553v0.62118h0.93176v0.33547c-0.01928 0.023807-0.02509 0.042331-0.11526 0.10313-0.13044 0.087902-0.33575 0.18262-0.66125 0.18262-0.36121 0-0.62118-0.10933-0.79945-0.28761-0.17828-0.17828-0.28761-0.43824-0.28761-0.79946 0-0.36121 0.10933-0.62118 0.28761-0.79945 0.17828-0.17828 0.43824-0.28761 0.79945-0.28761 0.36119 0 0.62133 0.10931 0.79952 0.28754l0.4392-0.4392c-0.30686-0.30717-0.74572-0.46961-1.2386-0.46961z" fill="#f9f9f9" stroke-width=".26457"/>
 <path d="m5.0499 10.951h3.1059v0.62118h-3.1059z" fill="#f9f9f9" stroke-width=".26457"/>
</svg>
